docs/img/stages-work34.svg

<svg width="499" height="496" viewBox="0 0 499 496" fill="none" xmlns="http://www.w3.org/2000/svg"><path d="M228.822 246.312c-.392.121-.789.231-1.19.331a26.242 26.242 0 00-2.928-.521 19.98 19.98 0 002.984-.748 19.675 19.675 0 005.536-2.86c1.728-1.235 3.096-2.693 4.094-4.376 1.069-1.761 1.602-3.711 1.602-5.838a14.33 14.33 0 00-1.675-6.796c-1.064-2.187-2.691-3.935-4.865-5.241-2.136-1.319-4.752-1.963-7.82-1.963-2.893 0-5.469.616-7.713 1.863l-.006.003c-2.175 1.243-3.917 2.954-5.22 5.127l-.002.003c-1.176 1.999-1.792 4.291-1.863 6.864h-1.791c.066-3.016.738-5.642 1.998-7.891 1.392-2.377 3.333-4.231 5.832-5.568l.008-.004c2.495-1.393 5.408-2.097 8.757-2.097 3.527 0 6.459.764 8.822 2.262h0l.012.008c2.444 1.455 4.266 3.367 5.48 5.738l.005.008c1.281 2.389 1.921 4.917 1.921 7.594 0 2.322-.522 4.396-1.556 6.235-1.044 1.855-2.466 3.453-4.272 4.793l-.007.005c-1.747 1.34-3.791 2.364-6.139 3.068l-.004.001zm-6.822.623c.978.018 1.947.092 2.908.22a26.26 26.26 0 01-2.908.211v-.431zm5.939 2.075a23.66 23.66 0 00-3.497-.793 25.149 25.149 0 003.191-.545c.489.121.975.256 1.459.406h0l.013.004c2.529.705 4.786 1.762 6.776 3.166l.007.005.007.005a15.303 15.303 0 014.883 5.144c1.206 2.068 1.822 4.587 1.822 7.578 0 3.214-.788 6.06-2.354 8.554l-.004.007c-1.509 2.496-3.627 4.442-6.367 5.842-2.738 1.339-5.959 2.017-9.675 2.017-3.011 0-5.68-.443-8.014-1.318-2.283-.878-4.267-2.075-5.956-3.588a16.492 16.492 0 01-3.748-5.403c-.757-1.951-1.163-4.03-1.217-6.241h1.881c.074 2.702.753 5.144 2.044 7.316l.004.006.004.007c1.43 2.239 3.417 4.035 5.945 5.392 2.547 1.366 5.572 2.039 9.057 2.039 3.301 0 6.201-.612 8.683-1.853l.009-.004c2.474-1.299 4.404-3.07 5.774-5.312l.003-.005c1.369-2.303 2.051-4.882 2.051-7.726 0-2.656-.618-4.971-1.875-6.923-1.179-1.983-2.76-3.625-4.738-4.923a20.928 20.928 0 00-6.168-2.854zm57.438-31.51h.227v46.7h-1.97v-41.62l-.913 1.338-27.63 40.5-.533.782h28.076v1.7h-31.131l33.874-49.4zm-1.743 47.7h1.97v1.7h-1.97v-1.7zm0 2.7h1.97v11.6h-1.97v-11.6zm2.97-1v-1.7h8.81v1.7h-8.81zM1.681 248.051h0C1.783 384.011 112.806 494.66 249.32 494.66c136.412 0 247.435-110.649 247.435-246.609 0-136.062-111.023-246.71-247.537-246.71C112.703 1.34 1.681 111.988 1.681 248.05zM249.32.5c136.889 0 248.282 111.022 248.282 247.551S386.209 495.5 249.32 495.5C112.432 495.5 1.04 384.478 1.04 248.051 1.04 111.624 112.33.5 249.32.5zm158.029 84.132l.452.451-97.319 97.236-.452-.451 97.319-97.236zm-223.486 222.63l.452.452-97.32 97.235-.451-.451 97.319-97.236z" fill="#E6C783" stroke="#E6C783"/></svg>

<svg width="499" height="496" viewBox="0 0 499 496" fill="none" xmlns="http://www.w3.org/2000/svg">
<path d="M228.822 246.312C228.43 246.433 228.033 246.543 227.632 246.643C226.665 246.414 225.689 246.24 224.704 246.122C225.707 245.952 226.701 245.703 227.688 245.374C229.715 244.699 231.561 243.746 233.224 242.514C234.952 241.279 236.32 239.821 237.318 238.138C238.387 236.377 238.92 234.427 238.92 232.3C238.92 229.882 238.361 227.615 237.245 225.504C236.181 223.317 234.554 221.569 232.38 220.263C230.244 218.944 227.628 218.3 224.56 218.3C221.667 218.3 219.091 218.916 216.847 220.163L216.841 220.166C214.666 221.409 212.924 223.12 211.621 225.293L211.619 225.296C210.443 227.295 209.827 229.587 209.756 232.16H207.965C208.031 229.144 208.703 226.518 209.963 224.269C211.355 221.892 213.296 220.038 215.795 218.701L215.803 218.697C218.298 217.304 221.211 216.6 224.56 216.6C228.087 216.6 231.019 217.364 233.382 218.862L233.382 218.862L233.394 218.87C235.838 220.325 237.66 222.237 238.874 224.608L238.879 224.616C240.16 227.005 240.8 229.533 240.8 232.21C240.8 234.532 240.278 236.606 239.244 238.445C238.2 240.3 236.778 241.898 234.972 243.238L234.965 243.243C233.218 244.583 231.174 245.607 228.826 246.311L228.822 246.312ZM222 246.935C222.978 246.953 223.947 247.027 224.908 247.155C223.961 247.278 222.992 247.348 222 247.366V246.935ZM227.939 249.01C226.758 248.649 225.592 248.385 224.442 248.217C225.532 248.101 226.596 247.92 227.633 247.672C228.122 247.793 228.608 247.928 229.092 248.078L229.092 248.078L229.105 248.082C231.634 248.787 233.891 249.844 235.881 251.248L235.888 251.253L235.895 251.258C237.931 252.596 239.557 254.309 240.778 256.402C241.984 258.47 242.6 260.989 242.6 263.98C242.6 267.194 241.812 270.04 240.246 272.534L240.242 272.541C238.733 275.037 236.615 276.983 233.875 278.383C231.137 279.722 227.916 280.4 224.2 280.4C221.189 280.4 218.52 279.957 216.186 279.082C213.903 278.204 211.919 277.007 210.23 275.494C208.602 273.922 207.354 272.122 206.482 270.091C205.725 268.14 205.319 266.061 205.265 263.85H207.146C207.22 266.552 207.899 268.994 209.19 271.166L209.194 271.172L209.198 271.179C210.628 273.418 212.615 275.214 215.143 276.571C217.69 277.937 220.715 278.61 224.2 278.61C227.501 278.61 230.401 277.998 232.883 276.757L232.892 276.753C235.366 275.454 237.296 273.683 238.666 271.441L238.669 271.436C240.038 269.133 240.72 266.554 240.72 263.71C240.72 261.054 240.102 258.739 238.845 256.787C237.666 254.804 236.085 253.162 234.107 251.864C232.205 250.576 230.148 249.624 227.939 249.01ZM285.377 217.5H285.604V264.2H283.634V224.2V222.58L282.721 223.918L255.091 264.418L254.558 265.2H255.504H282.634V266.9H251.503L285.377 217.5ZM283.634 265.2H285.604V266.9H283.634V265.2ZM283.634 267.9H285.604V279.5H283.634V267.9ZM286.604 266.9V265.2H295.414V266.9H286.604ZM1.68051 248.051L1.68051 248.051C1.7833 384.011 112.806 494.66 249.32 494.66C385.732 494.66 496.755 384.011 496.755 248.051C496.755 111.989 385.732 1.34048 249.218 1.34046C112.703 1.34045 1.68052 111.989 1.68051 248.051ZM249.32 0.5C386.209 0.500013 497.602 111.522 497.602 248.051C497.602 384.58 386.209 495.5 249.32 495.5C112.432 495.5 1.03905 384.478 1.03906 248.051C1.03907 111.624 112.33 0.499987 249.32 0.5ZM407.349 84.6319L407.801 85.0834L310.482 182.319L310.03 181.868L407.349 84.6319ZM183.863 307.262L184.315 307.714L86.9955 404.949L86.5437 404.498L183.863 307.262Z" fill="#E6C783" stroke="#E6C783"/>
</svg>
